assets/img/Bullet Resistance.svg

<svg id="Layer_1" data-name="Layer 1" xmlns="http://www.w3.org/2000/svg" viewBox="0 0 330 330"><path d="M165 0a165 165 0 10165 165A165 165 0 00165 0zm19.7 73.58a93.47 93.47 0 0171.56 72.05h-18.09a75.85 75.85 0 00-53.47-54zM44.52 171.22v-12.44h95.6v12.44zM146 255.93a93.46 93.46 0 01-72-71.56h18a75.83 75.83 0 0054 53.47zm0-164.43a75.84 75.84 0 00-54.12 54.13H73.74A93.49 93.49 0 01146 73.41zm25.6 191.68h-12.49v-93.63h12.44zm0-142.73h-12.49V46.82h12.44zm13.1 115.32v-18.1a75.83 75.83 0 0053.3-53.3h18.09a93.45 93.45 0 01-71.39 71.4zm4.53-84.55v-12.44h96.25v12.44z" fill="gray"/></svg>

<svg id="Layer_1" data-name="Layer 1" xmlns="http://www.w3.org/2000/svg" viewBox="0 0 330 330"><defs><style>.cls-1{fill:gray;}</style></defs><title>Bullet Resistance</title><path class="cls-1" d="M165,0A165,165,0,1,0,330,165,165,165,0,0,0,165,0Zm19.7,73.58a93.47,93.47,0,0,1,71.56,72.05H238.17a75.85,75.85,0,0,0-53.47-54ZM44.52,171.22V158.78h95.6v12.44ZM146,255.93a93.46,93.46,0,0,1-72-71.56H92A75.83,75.83,0,0,0,146,237.84ZM146,91.5a75.84,75.84,0,0,0-54.12,54.13H73.74A93.49,93.49,0,0,1,146,73.41Zm25.6,191.68H159.11V189.55h12.44Zm0-142.73H159.11V46.82h12.44ZM184.7,255.77v-18.1a75.83,75.83,0,0,0,53.3-53.3h18.09A93.45,93.45,0,0,1,184.7,255.77Zm4.53-84.55V158.78h96.25v12.44Z"/></svg>
